X:1
T:Ach Gott vom Himmel (3vv, CXLVI)
T:Michael Praetorius
T:Ach Gott vom Himmel (3vv, CXLVI)
C:Michael Praetorius
%%score [ 1 2 3 ]
L:1/8
Q:1/4=140
M:4/2
K:F
V:1 treble-8 nm="Tenor 1" snm="T 1"
V:2 treble-8 nm="Tenor 2" snm="T 2"
V:3 bass nm="Bass" snm="B"
V:1
 A8 B4 A4 | G4 d4 d6 c2 | B4 B4 A8- | A4 c4 B4 A4 | G4 c4 B8 | A8 =B4 z4 | z2 c2 B4 A4 G2 c2 | %7
w: 1.Ach Gott vom|Him- mel sieh _|_ dar- ein|_ und laß dich|des er- bar-|* men.|und laß dich des er-|
w: 4.Dar- um spricht|Gott: Ich muß _|_ auf sein|_ die Ar- men|sind ver- stö-|* ret.|die Ar- men sind ver-|
 B8 A8 | =B8 A8 | B4 A4 G4 d4 | d6 c2 B4 B4 | A12 c4 | B4 A4 G4 c4 | B8 A8 | =B4 z4 z2 c2 _B4 | %15
w: bar- *|men. Wie|we- nig sind der|Heil- * * gen|dein ver-|las- sen sind wir|Ar- *|men. ver- las-|
w: stö- *|ret. Ihr|Seuf- zen dringt zu|mir _ _ her-|ein, ich|hab ihr Klag er-|hö- *|ret. ich hab|
 A4 G2 c2 B8 | A8 =B8 | z4 G4 A4 F4 | E4 D4 F4 G4 | A6 A2 G4 B4 | A4 B4 G4 ^F4 | G2 D2 G4 E4 F4 | %22
w: sen sind wir Ar-|* men.|Dein Wort man|läßt nicht ha- ben|wahr der Glaub ist|auch ver- lo- schen|gar bei al- len Men-|
w: ihr Klag er- hö-|* ret.|Mein heil- sam|Wort soll auf dem|Plan ge- trost und|frisch sie grei- fen|an und sein die Kraft|
 G4 F6 E2 D4 | z2 D2 G4 E2 A4 =B2 | c2 d2 c2 B2 A8 | A4 z4 z2 A2 d4- | d4 =B4 c4 d4 | c4 B4 A8 | %28
w: schen- kin- * dern,|bei al- len Men- *|* schen- kin- * *|dern, bei al-|* len Men- schen-|kin- * *|
w: der Ar- * men,|und sein die Kraft _|_ der Ar- * *|men, und sein|_ die Kraft der|Ar- * *|
 A16- | A16 |] %30
w: dern.|_|
w: men.|_|
V:2
 ^F8 G4 =F4 | E4 F4 B6 AG | F4 G4 G4 ^F2 E2 | ^F4 A6 G4 F2 | G4 A8 G4- | G4 ^F4 G4 z2 G2 | %6
w: 1.Ach Gott vom|Him- mel sieh _ _|_ dar- ein _ _|_ und laß dich|des er- bar-|* * men. und|
w: 4.Dar- um spricht|Gott: Ich muß _ _|_ auf sein _ _|_ die Ar- men|sind ver- stö-|* * ret. die|
 F2 E2 D2 G2 F4 B2 A2- | A2 G2 G6 ^FE F4 | G8 ^F8 | G4 =F4 E4 F4 | B6 AG F4 G4 | G4 ^F2 E2 F4 A4- | %12
w: laß dich des und laß dich des|_ er- bar- * * *|men. Wie|we- nig sind der|Heil- * * * gen|dein _ _ _ ver-|
w: Ar- men sind die Ar- men sind|_ ver- stö- * * *|ret. Ihr|Seuf- zen dringt zu|mir _ _ _ her-|ein, _ _ _ ich|
 A2 G4 ^F2 G4 A4- | A4 G8 ^F4 | G4 z2 G2 F2 E2 D2 G2 | F4 B2 A2- A2 G2 G4- | G2 ^FE F4 G8 | %17
w: * las- sen sind wir|_ Ar- *|men. ver- las- sen sind ver-|las- sen sind _ wir Ar-|* * * * men.|
w: _ hab ihr Klag er-|* hö- *|ret. ich hab ihr Klag ich|hab ihr Klag _ er- hö-|* * * * ret.|
 z4 E6 F4 D2 | G2 A2 F2 B2 AG F4 E2 | F6 F2 E3 F G4 | ^F4 G2 d2 c3 B A2 A2 | =B8 z2 G2 d4 | %22
w: Dein Wort _|_ man läßt nicht ha- * * ben|wahr der Glaub _ _|ist auch ver- lo- * * schen|gar bei al-|
w: Mein heil- *|* sam Wort soll auf _ _ dem|Plan ge- trost _ _|und frisch sie grei- * * fen|an und sein|
 =B4 c2 d2 c4 _B4 | A4 z2 D2 A4 ^F4 | G2 G2 A2 G2 F4 E4 | z2 D2 d8 B4- | B2 A2 G6 A4 GF | %27
w: len Men- schen- kin- *|dern, bei al- len|Men- schen- kin- * * dern,|bei al- len|_ _ _ Men- * *|
w: die Kraft der Ar- *|men, und sein die|Kraft der Ar- * * men,|und sein die|_ _ _ Kraft _ _|
 E2 F2 G4 E2 C2 c4- | c2 c2 d2 e2 f2 e2 d4- | d4 ^c2 =B2 c8 |] %30
w: * schen- kin- dern, bei al-|* len Men- schen- kin- * *|* * * dern.|
w: _ der Ar- men, und sein|_ die Kraft der Ar- * *|* * * men.|
V:3
 D,8 G,,4 A,,4 | C,4 B,,4 G,,2 A,,2 B,,2 C,2 | D,4 G,,4 D,8- | D,4 A,,4 D,4 D,4 | _E,4 C,4 D,8- | %5
w: 1.Ach Gott vom|Him- mel sieh _ _ _|_ dar- ein|_ und laß dich|des er- bar-|
w: 4.Dar- um spricht|Gott: Ich muß _ _ _|_ auf sein|_ die Ar- men|sind ver- stö-|
 D,8 G,,2 G,2 F,2 E,2 | D,2 A,,2 B,,3 C, D,4 G,,2 A,,2 | B,,6 C,2 D,8 | G,,8 D,8 | %9
w: * men. und laß dich|des er- bar- * * men. er-|bar- * *|men. Wie|
w: * ret. die Ar- men|sind ver- stö- * * ret. ver-|stö- * *|ret. Ihr|
 G,,4 A,,4 C,4 B,,4 | G,,2 A,,2 B,,2 C,2 D,4 G,,4 | D,12 A,,4 | D,4 D,4 _E,4 C,4 | D,16 | %14
w: we- nig sind der|Heil- * * * * gen|dein ver-|las- sen sind wir|Ar-|
w: Seuf- zen dringt zu|mir _ _ _ _ her-|ein, ich|hab ihr Klag er-|hö-|
 G,,2 G,2 F,2 E,2 D,2 A,,2 B,,3 C, | D,4 G,,2 A,,2 B,,6 C,2 | D,8 G,,8 | z4 C,6 D,4 B,,2 | %18
w: men. ver- las- sen sind wir Ar- *|* men. wir Ar- *|* men.|Dein Wort man|
w: ret. ich hab ihr Klag er- hö- *|* ret. er- hö- *|* ret.|Mein heil- sam|
 C,2 A,,2 B,,2 G,,2 D,4 C,4 | F,,6 F,,2 C,4 G,,4 | D,4 B,,4 C,4 D,4 | G,,8 z8 | z8 z4 z2 G,,2 | %23
w: läßt _ _ nicht ha- ben|wahr der Glaub ist|auch ver- lo- schen|gar|bei|
w: Wort _ _ soll auf dem|Plan ge- trost und|frisch sie grei- fen|an|und|
 D,4 =B,,4 C,4 D,4 | C,2 B,,2 A,,4 A,,2 D,4 ^C,2 | D,6 G,,2 D,4 G,,4 | z2 D,2 G,4 E,2 F,4 B,,2 | %27
w: al- len Men- schen-|kin- * dern, bei al- len|Men- schen- kin- dern,|bei al- len Men- schen-|
w: sein die Kraft der|Ar- * men, und sein die|Kraft der Ar- men,|und sein die Kraft der|
 C,4 G,,4 A,,6 F,,2 | F,6 E,2 D,2 ^C,2 D,4 | A,,16 |] %30
w: kin- * dern, bei|al- len Men- schen- kin-|dern.|
w: Ar- * men, und|sein die Kraft der Ar-|men.|

